X:172
T:Eildon Hills, The
R:Jig
M:6/8
%%printtempo 0
Q:180
K:A
e|:\
"A"A>BA "E/A"c2B|"A"A>ca "E7"e2d|"A"c>BA "E/A"c2c|"A"e>dc "E7"B<cB|
"A"A>BA "E/A"c2B|"A"A<af "E/A"e>dc|"A"e<fe "E7"d>cB|"A"A>BA A2e::
"A"a2e "E7"f>ed|"A"c<ed "E/A"c>BA|"A"A>GA "E/A"c2c|"A"e>dc B2e|
"A"a2e "E/A"f>ec|"A/D"f>ga "A"e>cA|"E7"G>FE B<ed|"A"c>AA A2 e::
"A"A>AA "E/A"c>cc|"A"A>ce "E/A"e>cA|"A"c>Bc "E/A"A>ce|"A"e>dc "E7"B>cB|
"A"A>BA "E/A"c>Bc|"A"A<ca "E/A"e>cA|"E7/B"e<fe "E7"d>cB|"A"A>BA A2E:|
"A"a>ee "E/A"f>ee|"A"c>ee "E/A"a>ee|"A"E>AA "E/A"c2e|"Bm"e>dc "E7"B2e|
"A"a>ee "E/A"f>ee|"A"c>ee "E/A"aee|"A"e<fe "E7"d>cB|"A"A>BA A2e|
"A"a>ee "E/A"f>ee|"A"c>ee "E/A"aee|"A"E>AA "E/A"c2e|"A"e>dc "E7"B>cB|
"A"A>EA "E/A"c>Ac|"A"e<ce "E"a>gf|"E/A"e<fe "E7"d>cB|"A"A>BA LA2|]
